svgs/duotone/database.svg

<svg xmlns="http://www.w3.org/2000/svg" viewBox="0 0 448 512"><!--! Font Awesome Pro 6.5.1 by @fontawesome - https://fontawesome.com License - https://fontawesome.com/license (Commercial License) Copyright 2023 Fonticons, Inc. --><defs><style>.fa-secondary{opacity:.4}</style></defs><path class="fa-secondary" d="M448 80v48c0 44.2-100.3 80-224 80S0 172.2 0 128V80C0 35.8 100.3 0 224 0S448 35.8 448 80zM393.2 214.7c20.8-7.4 39.9-16.9 54.8-28.6V288c0 44.2-100.3 80-224 80S0 332.2 0 288V186.1c14.9 11.8 34 21.2 54.8 28.6C99.7 230.7 159.5 240 224 240s124.3-9.3 169.2-25.3zM0 346.1c14.9 11.8 34 21.2 54.8 28.6C99.7 390.7 159.5 400 224 400s124.3-9.3 169.2-25.3c20.8-7.4 39.9-16.9 54.8-28.6V432c0 44.2-100.3 80-224 80S0 476.2 0 432V346.1z"/><path class="fa-primary" d="M0 186.1V128c0 44.2 100.3 80 224 80s224-35.8 224-80v58.1c-14.9 11.8-34 21.2-54.8 28.6C348.3 230.7 288.5 240 224 240s-124.3-9.3-169.2-25.3C34 207.3 14.9 197.8 0 186.1zm0 160V288c0 44.2 100.3 80 224 80s224-35.8 224-80v58.1c-14.9 11.8-34 21.2-54.8 28.6C348.3 390.7 288.5 400 224 400s-124.3-9.3-169.2-25.3C34 367.3 14.9 357.8 0 346.1z"/></svg>

<svg xmlns="http://www.w3.org/2000/svg" viewBox="0 0 448 512"><!--! Font Awesome Pro 6.1.1 by @fontawesome - https://fontawesome.com License - https://fontawesome.com/license (Commercial License) Copyright 2022 Fonticons, Inc. --><defs><style>.fa-secondary{opacity:.4}</style></defs><path class="fa-primary" d="M0 186.1V128C0 172.2 100.3 208 224 208C347.7 208 448 172.2 448 128V186.1C433.1 197.8 413.1 207.3 393.2 214.7C348.3 230.7 288.5 240 224 240C159.5 240 99.66 230.7 54.85 214.7C34.02 207.3 14.93 197.8 0 186.1V186.1zM0 346.1V288C0 332.2 100.3 368 224 368C347.7 368 448 332.2 448 288V346.1C433.1 357.8 413.1 367.3 393.2 374.7C348.3 390.7 288.5 400 224 400C159.5 400 99.66 390.7 54.85 374.7C34.02 367.3 14.93 357.8 0 346.1z"/><path class="fa-secondary" d="M448 80V128C448 172.2 347.7 208 224 208C100.3 208 0 172.2 0 128V80C0 35.82 100.3 0 224 0C347.7 0 448 35.82 448 80zM393.2 214.7C413.1 207.3 433.1 197.8 448 186.1V288C448 332.2 347.7 368 224 368C100.3 368 0 332.2 0 288V186.1C14.93 197.8 34.02 207.3 54.85 214.7C99.66 230.7 159.5 240 224 240C288.5 240 348.3 230.7 393.2 214.7V214.7zM54.85 374.7C99.66 390.7 159.5 400 224 400C288.5 400 348.3 390.7 393.2 374.7C413.1 367.3 433.1 357.8 448 346.1V432C448 476.2 347.7 512 224 512C100.3 512 0 476.2 0 432V346.1C14.93 357.8 34.02 367.3 54.85 374.7z"/></svg>
